engine-ui/packages/console-ui/dist/public/rdos/img/icon/table.svg

<svg xmlns="http://www.w3.org/2000/svg" viewBox="0 0 200 200" fill="#fff"><path d="M.3 8.9v182.4h199.2l.3-182.7L.3 8.9zM182.8 175H16.6V58.7l166.5-.3-.3 116.6zM33.4 75.2H83v16.6H33.4V75.2zm0 33.2H83V125H33.4v-16.6zm0 33.3H83v16.6H33.4v-16.6zm83.2-66.5h49.8v16.6h-49.8V75.2zm0 33.2h49.8V125h-49.8v-16.6zm0 33.4h49.8v16.6h-49.8v-16.6z"/></svg>

<?xml version="1.0" encoding="utf-8"?>
<!-- Generator: Adobe Illustrator 21.0.0, SVG Export Plug-In . SVG Version: 6.00 Build 0)  -->
<svg version="1.1" id="图层_1" xmlns="http://www.w3.org/2000/svg" xmlns:xlink="http://www.w3.org/1999/xlink" x="0px" y="0px"
	 viewBox="0 0 200 200" fill="#ffffff" style="enable-background:new 0 0 200 200;" xml:space="preserve">
<path d="M0.3,8.9v182.4h199.2l0.3-182.7L0.3,8.9z M182.8,175H16.6V58.7l166.5-0.3L182.8,175z M33.4,75.2H83v16.6H33.4
	C33.4,91.8,33.4,75.2,33.4,75.2z M33.4,108.4H83V125H33.4V108.4z M33.4,141.7H83v16.6H33.4V141.7z M116.6,75.2h49.8v16.6h-49.8
	C116.6,91.9,116.6,75.2,116.6,75.2z M116.6,108.4h49.8V125h-49.8V108.4z M116.6,141.8h49.8v16.6h-49.8V141.8z"/>
</svg>
